X: 440
T: Bu Akşam Gün Batarken Gel
C: Tatyos Efendi
O: Turkey
F: http://compmusic.upf.edu/node/140
N: ussak--sarki--aksak--bu_aksam_gun--tatyos_efendi
N: makam= ussak
N: form= sarki
N: usul= aksak = 9/8
M: 9/8
L: 1/16
K: C _2/4B   
Q: 1/4=240
%%MIDI tuningsystem comma53
(3c2B2A2 (3G2^3/4F2E2 D4 G2F2 G2 | \
w:  ARANAĞME  | 
A12G2 A2B2  | c12 B2A2 G2 | d12c2 B2A2  | 
w:   |   |   | 
BcBA B2c2 B2A2 G2^3/4F2 G2 | A6 c2B2 c2A4z2  | \
w:   |   | 
(3c2B2A2 (3G2^3/4F2E2 D4 G2F2 G2 | 
w:  ARANAĞME  | 
A12G2 A2B2  | c12 B2A2 G2 | d12c2 B2A2  | \
w:   |   |   | 
BcBA B2c2 B2A2 G2^3/4F2 G2 | 
w:   | 
A6 c2B2 c2A4z2  | G2G4A2 A4 A6 | A2 c2B2 A2AG ABAG ^3/4FED2  | 
w:   |  Bu  ak *  şam  gün   |  ba tar *  *  ken  *  gel    | 
G2G4A2 A4 A6 | G2 c4 B2B2 A2B6  | B4 G2G2 G4 c4 c2 | \
w:  Bu  ak *  şam  gün   |  ba tar *  ken  *  gel    |  *  Sa kın  geç  kal ma   | 
B3AG4d8-d2  | 
w:  er *  ken  gel    | 
d4 c2c2 B2A2 A2B2 c2 | B3AG2 BAA4ef edcd  | \
w:  *  A man  geç  *  kal *  ma   |  er *  ken  *  *  gel   SAZ  | 
e4 c2d2 e4 e4 d2 | 
w:  *  Ta ham mül  kal  | 
e2 fge2 d2d2 {f}edd6  | d4 c2d2 e2f2 agfe e2 | \
w:  ma dı  *  *  *  ar *  *  *  tık    |  *  Ta ham mül  *  kal  | 
d2 d4 c2c2 BAB6  | 
w:  ma dı  *  ar *  *  tık    | 
B4 G2G2 G4 c4 c2 | B3AG4d8-d2  | d4 c2c2 B2A2 A2B2 c2 | \
w:  *  Sa kın  geç  kal ma   |  er *  ken  gel    |  *  A man  geç  *  kal *  ma   | 
B3AG2 BAA8-A2  | 
w:  er *  ken  *  *  gel    | 
(3c2B2A2 (3G2^3/4F2E2 D4 G2F2 G2 | \
w:  ARANAĞME  | 
A12G2 A2B2  | c12 B2A2 G2 | d12c2 B2A2  | 
w:   |   |   | 
BcBA B2c2 B2A2 G2^3/4F2 G2 | A6 c2B2 c2A4z2  | \
w:   |   | 
(3c2B2A2 (3G2^3/4F2E2 D4 G2F2 G2 | 
w:  ARANAĞME  | 
A12G2 A2B2  | c12 B2A2 G2 | d12c2 B2A2  | \
w:   |   |   | 
BcBA B2c2 B2A2 G2^3/4F2 G2 | 
w:   | 
A6 c2B2 c2A4z2  | G2G4A2 A4 A6 | A2 c2B2 A2AG ABAG ^3/4FED2  | 
w:   |  Bu  ak *  şam  gün   |  ba tar *  *  ken  *  gel    | 
G2G4A2 A4 A6 | G2 c4 B2B2 A2B6  | B4 G2G2 G4 c4 c2 | \
w:  Bu  ak *  şam  gün   |  ba tar *  ken  *  gel    |  *  Sa kın  geç  kal ma   | 
B3AG4d8-d2  | 
w:  er *  ken  gel    | 
d4 c2c2 B2A2 A2B2 c2 | B3AG2 BAA4ef edcd  | \
w:  *  A man  geç  *  kal *  ma   |  er *  ken  *  *  gel   SAZ  | 
e4 c2d2 e4 e4 d2 | 
w:  *  Ta ham mül  kal  | 
e2 fge2 d2d2 {f}edd6  | d4 c2d2 e2f2 agfe e2 | \
w:  ma dı  *  *  *  ar *  *  *  tık    |  *  Ta ham mül  *  kal  | 
d2 d4 c2c2 BAB6  | 
w:  ma dı  *  ar *  *  tık    | 
B4 G2G2 G4 c4 c2 | B3AG4d8-d2  | d4 c2c2 B2A2 A2B2 c2 | \
w:  *  Sa kın  geç  kal ma   |  er *  ken  gel    |  *  A man  geç  *  kal *  ma   | 
B3AG2 BAA8-A2  | 
w:  er *  ken  *  *  gel    | 
|


